X: 106104
T: JENNY DANG THE WEAVER
Q:"Reel."
R: Reel.
%R:reel
B: James Kerr "Merry Melodies" v.1 p.6 s.1 #4
Z: 2017 John Chambers <jc:trillian.mit.edu>
M: C
L: 1/8
K: D
uf2 |:\
vd>uA A/A/A (AF)AB | vd>uA A/A/A f2ef |\
vd>uB B/B/B (BA)Bd |[1 ABde faef :|[2 ABde f2(ef) :|
|:\
d>efd e>fge | d>efd e2(dB) |\
d>efd e>fge |[1 a>A A/A/A f2ef :|[2 (f/g/a) (Aa) fgef |]

%%sep 1 1 500
%%sep 1 1 500

